X:659
T:
N:Har äver använts som ridmarsch;
S:efter P. Hederstedt, Hesselby i Linde.
R:kadrilj
O:Gotland, Linde
M:2/4
L:1/16
K:Bb
f2ff fede|f2ff f2ed|c2cc c2gf|d2dd d2 z2|f2ff g2gg|a2aa bfdB|c2cc gecA|B2BB
B2 z2::c2cc cBAB|c2fg f2=e_e|d2dd defd|c2cc c2 z2|B2dB f2e/d/c/B/|A2cA
e2d/c/B/A/|B2dB f2ga|b2bb b4::f2f2 f2de|f2f2 f2ed|c2c2 g2fe|d2d2 d2 z2|f2ff
g2gg|a2aa bfdB|c2cc gecA|B2 BB B2 z2::Lc4 A2Bc|Ld4 B2cd|ec'af dbfd|c2cc c2
z2|f2ff g2gg|a2aa bfdB|c2cc gecA|B2BB B2 z2:|

